dist/logotype-icon.9b2a9dea.svg

<svg width="100" height="41" viewBox="0 0 100 41" fill="none" xmlns="http://www.w3.org/2000/svg">
<path d="M41.3632 36.8062L41.4709 35.8961L38.2905 36.1566L37.8081 40.3196L41.064 40.0529L41.1775 39.1423L39.0476 39.3168L39.1323 38.5559L40.943 38.4075L41.0416 37.5276L39.2367 37.6755L39.3145 36.974L41.3632 36.8062ZM48.2266 35.3426L46.9263 35.4491L45.988 36.71L45.3013 35.5823L44.0768 35.6826L45.2749 37.5755L43.5132 39.8522L44.8888 39.7395L45.8518 38.4236L46.5658 39.6021L47.8078 39.5004L46.5398 37.5367L48.2266 35.3426ZM51.1626 39.2256L52.3115 39.1314L52.6882 35.9019L53.9302 35.8001L54.0417 34.8662L50.403 35.1643L50.2914 36.0983L51.5393 35.9961L51.1626 39.2256ZM60.2103 35.6745C60.1444 34.8551 59.5075 34.4184 58.4688 34.5035L56.7332 34.6457L56.2508 38.8087L57.4001 38.7145L57.5273 37.6085L58.1074 37.5609L58.7989 38.6L60.0002 38.5015L59.2106 37.3292C59.8985 37.0254 60.2712 36.4293 60.2103 35.6745ZM59.0587 35.8807C59.095 36.3313 58.8186 36.6014 58.3139 36.6427L57.629 36.6988L57.7764 35.4792L58.3797 35.4298C58.7743 35.3974 59.031 35.5354 59.0587 35.8807ZM66.3654 34.7578L66.4733 33.8477L63.2928 34.1083L62.8104 38.2713L66.0662 38.0046L66.18 37.094L64.0497 37.2685L64.1348 36.5075L65.9453 36.3592L66.0438 35.4793L64.2392 35.6272L64.3167 34.9257L66.3654 34.7578ZM73.1874 33.2976L71.5329 35.8189L70.3898 33.5269L69.4555 33.6034L68.9731 37.7664L70.0292 37.6799L70.285 35.4853L71.1633 37.1805L71.6686 37.1391L72.8793 35.2727L72.6352 37.4664L73.6971 37.3794L74.1683 33.2173L73.1874 33.2976ZM80.3288 33.6138L80.4368 32.7037L77.2562 32.9643L76.7738 37.1273L80.0296 36.8606L80.1434 35.95L78.0131 36.1245L78.0983 35.3635L79.9087 35.2152L80.0072 34.3353L78.2026 34.4832L78.2801 33.7817L80.3288 33.6138Z" fill="#001560"/>
<path fill-rule="evenodd" clip-rule="evenodd" d="M29.4273 21.2723C29.4273 28.3179 23.3358 33.0601 13.5715 33.0601C7.9727 33.0601 3.00096 31.7052 0 29.8535L4.07593 21.9949C7.56959 24.0273 11.1528 24.9306 14.6465 24.9306C17.3787 24.9306 18.812 24.208 18.812 23.0789C18.812 21.8467 16.7847 21.3328 14.225 20.6839C9.84159 19.5726 3.89677 18.0656 3.89677 11.8782C3.89677 4.69707 9.8539 0 19.7526 0C24.4108 0 28.5763 0.948447 31.4877 2.70985L27.6805 10.4781C25.1722 8.89734 22.1265 8.12954 19.0807 8.12954C15.9902 8.12954 14.4673 9.16832 14.4673 10.2523C14.4673 11.5524 16.5582 12.0572 19.1766 12.6893C23.5621 13.748 29.4273 15.1639 29.4273 21.2723ZM56.8942 0.722626H64.8651H69.0324H75.4804L79.7355 11.6523L88.4697 0.722626H99.085L83.2292 20.8658L82.0131 27.0934C80.0974 25.0737 76.8349 23.1284 72.1785 23.3969L72.7034 20.7303L65.966 3.53269L53.311 15.13L56.8682 21.1241C53.8502 21.3341 50.6114 22.568 47.5782 25.5946L45.383 22.0401L42.4267 24.7951L42.0054 26.9449C39.5817 27.4667 36.8896 28.8364 35.1702 31.8792C34.2847 31.8922 33.503 32.0539 32.8143 32.3375H30.5573L36.8279 0.722626H47.2194L44.9799 11.9233L56.8942 0.722626Z" fill="url(#paint0_linear)"/>
<path d="M36.1246 34.1835C29.822 32.6931 29.0432 37.4297 29.3159 39.774C28.1403 36.8896 27.6873 31.2431 35.28 31.7325C38.1032 25.9041 44.2751 25.4904 46.6351 26.1688C54.2374 14.1359 63.7451 19.1248 67.5482 23.1233C76.9457 18.9664 82.3577 25.961 83.8891 29.9779C88.4613 30.7292 89.3298 33.8538 89.1923 35.3222C87.987 31.2426 84.5511 30.8449 82.9843 31.1559C78.8063 20.1591 70.6602 23.6473 67.1097 26.766C57.4963 17.3779 50.3567 24.3165 48.2565 29.1644C40.0797 25.0311 36.7616 30.7883 36.1246 34.1835Z" fill="url(#paint1_linear)"/>
<defs>
<linearGradient id="paint0_linear" x1="49.5423" y1="0" x2="49.5423" y2="33.0601" gradientUnits="userSpaceOnUse">
<stop stop-color="#2C4CBC"/>
<stop offset="1" stop-color="#0A2172"/>
</linearGradient>
<linearGradient id="paint1_linear" x1="58.316" y1="18.5888" x2="59.0424" y2="38.701" gradientUnits="userSpaceOnUse">
<stop stop-color="#2C4CBC"/>
<stop offset="1" stop-color="#0A2172"/>
</linearGradient>
</defs>
</svg>

<svg xmlns="http://www.w3.org/2000/svg" width="100" height="41" fill="none" xmlns:v="https://vecta.io/nano"><path d="M41.363 36.806l.108-.91-3.18.261-.482 4.163 3.256-.267.114-.911-2.13.175.085-.761 1.811-.148.099-.88-1.805.148.078-.702 2.049-.168zm6.863-1.464l-1.3.107-.938 1.261-.687-1.128-1.224.1 1.198 1.893-1.762 2.277 1.376-.113.963-1.316.714 1.178 1.242-.102-1.268-1.964 1.687-2.194zm2.936 3.883l1.149-.094.377-3.23 1.242-.102.111-.934-3.639.298-.112.934 1.248-.102-.377 3.23zm9.048-3.551c-.066-.819-.703-1.256-1.741-1.171l-1.736.142-.482 4.163 1.149-.094.127-1.106.58-.048.692 1.039L60 38.502l-.79-1.172c.688-.304 1.061-.9 1-1.655zm-1.152.206c.036.451-.24.721-.745.762l-.685.056.147-1.22.603-.049c.395-.032.651.106.679.451zm7.307-1.123l.108-.91-3.18.261-.482 4.163 3.256-.267.114-.911-2.13.175.085-.761 1.811-.148.099-.88-1.805.148.078-.702 2.049-.168zm6.822-1.46l-1.654 2.521-1.143-2.292-.934.077-.482 4.163 1.056-.086.256-2.195.878 1.695.505-.041 1.211-1.866-.244 2.194 1.062-.087.471-4.162-.981.08zm7.141.316l.108-.91-3.181.261-.482 4.163 3.256-.267.114-.911-2.13.174.085-.761 1.81-.148.099-.88-1.805.148.078-.701 2.049-.168z" fill="#001560"/><path fill-rule="evenodd" d="M29.427 21.272c0 7.046-6.091 11.788-15.856 11.788-5.599 0-10.571-1.355-13.571-3.207l4.076-7.859c3.494 2.032 7.077 2.936 10.571 2.936 2.732 0 4.166-.723 4.166-1.852 0-1.232-2.027-1.746-4.587-2.395-4.383-1.111-10.328-2.618-10.328-8.806C3.897 4.697 9.854 0 19.753 0c4.658 0 8.824.948 11.735 2.71l-3.807 7.768c-2.508-1.581-5.554-2.349-8.6-2.349-3.091 0-4.613 1.039-4.613 2.123 0 1.3 2.091 1.805 4.709 2.437 4.386 1.059 10.251 2.475 10.251 8.583zM56.894.723h7.971 4.167 6.448l4.255 10.93L88.47.723h10.615L83.229 20.866l-1.216 6.228c-1.916-2.02-5.178-3.965-9.835-3.697l.525-2.667-6.737-17.198L53.311 15.13l3.557 5.994c-3.018.21-6.257 1.444-9.29 4.471l-2.195-3.555-2.956 2.755-.421 2.15c-2.424.522-5.116 1.892-6.835 4.934-.886.013-1.667.175-2.356.458h-2.257L36.828.723h10.392L44.98 11.923 56.894.723z" fill="url(#A)"/><path d="M36.125 34.184c-6.303-1.49-7.081 3.246-6.809 5.59-1.176-2.884-1.629-8.531 5.964-8.041 2.823-5.828 8.995-6.242 11.355-5.564 7.602-12.033 17.11-7.044 20.913-3.046 9.398-4.157 14.81 2.838 16.341 6.855 4.572.751 5.441 3.876 5.303 5.344-1.205-4.08-4.641-4.477-6.208-4.166-4.178-10.997-12.324-7.509-15.875-4.39-9.613-9.388-16.753-2.449-18.853 2.398-8.177-4.133-11.495 1.624-12.132 5.019z" fill="url(#B)"/><defs><linearGradient id="A" x1="49.542" y1="0" x2="49.542" y2="33.06" gradientUnits="userSpaceOnUse"><stop stop-color="#2c4cbc"/><stop offset="1" stop-color="#0a2172"/></linearGradient><linearGradient id="B" x1="58.316" y1="18.589" x2="59.042" y2="38.701" gradientUnits="userSpaceOnUse"><stop stop-color="#2c4cbc"/><stop offset="1" stop-color="#0a2172"/></linearGradient></defs></svg>
